src/assets/IconHexagonGreen.svg

<svg width="450" height="313" viewBox="0 0 450 313" fill="none" xmlns="http://www.w3.org/2000/svg">
<path d="M223.237 81.3779H110V212.134H223.237V81.3779Z" fill="#2ED2A1"/>
<path d="M336.475 81.3779H223.238V212.134H336.475V81.3779Z" fill="#2ED2A1"/>
<path d="M223.236 146.753L202.806 212.132L223.236 277.511L336.473 212.132L223.236 146.753Z" fill="#28C797"/>
<path d="M110 212.132L223.237 277.511V146.753L110 212.132Z" fill="#16C08E"/>
<path d="M223.236 16L202.806 81.3789L223.236 146.758L336.473 81.3789L223.236 16Z" fill="#40EBB8"/>
<path d="M110 81.3789L223.237 146.758V16L110 81.3789Z" fill="#54FAC8"/>
<path opacity="0.4" fill-rule="evenodd" clip-rule="evenodd" d="M110.484 273.295C116.317 280.012 120.385 287.801 122.343 295.916C123.417 300.404 121.193 304.907 117.228 306.908L117.243 306.936C93.5731 318.922 62.8932 311.218 45.5116 291.204C39.6793 284.488 35.611 276.699 33.653 268.584C32.5788 264.095 34.8032 259.593 38.7685 257.592C62.5516 245.292 93.3917 253.613 110.484 273.295ZM225.034 191.902C225.049 207.121 225.07 225.847 225.034 191.902V191.902ZM107.647 6.07423C120.467 29.0399 114.318 59.4001 95.6469 77.5622C89.2386 83.7957 81.7033 88.3093 73.7662 90.715C69.0172 92.1536 64.0282 89.8149 62.0045 85.425C58.0762 78.3873 55.7666 70.2432 55.3162 61.6868C53.9316 35.3562 70.4824 8.48059 95.8849 0.78484C100.635 -0.654375 105.624 1.68427 107.647 6.07423ZM94.3329 30.4707C94.1966 27.9064 93.8088 25.4205 93.1859 23.0553C78.8197 32.0599 71.261 51.2379 75.5543 67.5364C87.787 59.8698 95.0935 44.7669 94.3329 30.4707ZM36.4592 75.1273C32.2996 72.8178 26.955 73.7934 23.9186 77.6386C7.45643 98.4975 9.31253 129.875 25.5957 150.561C30.9284 157.336 37.5587 162.68 44.8759 166.156C49.0355 168.465 54.3801 167.49 57.4165 163.644C79.3535 135.85 68.465 90.3305 36.4592 75.1273ZM39.7809 102.891C48.8137 114.15 51.5705 130.554 45.9464 143.79C32.8127 132.934 27.8786 113.025 34.4778 97.4931C36.3847 99.0697 38.1657 100.878 39.7809 102.891ZM11.8173 166.49C7.16957 166.333 2.91802 169.479 1.86025 174.166C-4.00304 200.14 11.295 227.882 34.9608 239.627C42.793 243.513 51.2275 245.503 59.4915 245.455C64.1393 245.612 68.3908 242.466 69.4486 237.779C77.2716 203.125 47.6969 166.283 11.8173 166.49ZM27.65 190.048C40.5096 196.494 49.9457 210.173 50.683 224.582C34.383 220.207 21.5039 204.302 20.6365 187.363C22.9954 187.997 25.3484 188.894 27.65 190.048ZM63.7103 270.879C61.1188 270.865 58.5818 271.116 56.146 271.617C64.4093 286.545 83.2336 295.353 99.8501 291.929C92.8074 279.208 78.111 270.958 63.7103 270.879Z" fill="#2ED2A1"/>
<path opacity="0.4" fill-rule="evenodd" clip-rule="evenodd" d="M339.621 273.295C333.789 280.011 329.72 287.801 327.762 295.915C326.688 300.404 328.913 304.906 332.878 306.907L332.863 306.936C356.532 318.922 387.212 311.218 404.594 291.204C410.426 284.487 414.494 276.698 416.452 268.583C417.527 264.095 415.302 259.592 411.337 257.591C387.554 245.292 356.714 253.613 339.621 273.295ZM225.071 191.902C225.057 207.121 225.036 225.847 225.071 191.902V191.902ZM342.458 6.07374C329.639 29.0394 335.788 59.3996 354.459 77.5617C360.867 83.7952 368.402 88.3088 376.339 90.7145C381.088 92.1531 386.077 89.8144 388.101 85.4245C392.029 78.3869 394.339 70.2427 394.789 61.6863C396.174 35.3557 379.623 8.4801 354.221 0.784352C349.471 -0.654863 344.481 1.68378 342.458 6.07374ZM355.773 30.4702C355.909 27.9059 356.297 25.42 356.92 23.0548C371.286 32.0594 378.844 51.2374 374.551 67.536C362.319 59.8693 355.012 44.7664 355.773 30.4702ZM413.646 75.1269C417.806 72.8173 423.15 73.793 426.187 77.6381C442.649 98.497 440.793 129.874 424.51 150.56C419.177 157.335 412.547 162.679 405.23 166.155C401.07 168.465 395.725 167.489 392.689 163.644C370.752 135.85 381.64 90.33 413.646 75.1269ZM410.325 102.89C401.292 114.149 398.535 130.553 404.159 143.789C417.293 132.934 422.227 113.025 415.628 97.4927C413.721 99.0692 411.94 100.877 410.325 102.89ZM438.288 166.489C442.936 166.333 447.187 169.478 448.245 174.166C454.109 200.14 438.81 227.881 415.145 239.626C407.312 243.513 398.878 245.503 390.614 245.455C385.966 245.612 381.715 242.466 380.657 237.779C372.834 203.125 402.409 166.282 438.288 166.489ZM422.455 190.047C409.596 196.493 400.16 210.172 399.422 224.582C415.722 220.207 428.602 204.301 429.469 187.363C427.11 187.996 424.757 188.894 422.455 190.047ZM386.395 270.879C388.987 270.865 391.524 271.115 393.959 271.617C385.696 286.545 366.872 295.353 350.255 291.928C357.298 279.207 371.994 270.957 386.395 270.879Z" fill="#2ED2A1"/>
</svg>

<svg width="450" height="313" fill="none" xmlns="http://www.w3.org/2000/svg"><path d="M223.237 81.378H110v130.756h113.237V81.378zM336.475 81.378H223.238v130.756h113.237V81.378z" fill="#2ED2A1"/><path d="M223.236 146.753l-20.43 65.379 20.43 65.379 113.237-65.379-113.237-65.379z" fill="#28C797"/><path d="M110 212.132l113.237 65.379V146.753L110 212.132z" fill="#16C08E"/><path d="M223.236 16l-20.43 65.379 20.43 65.379 113.237-65.38L223.236 16z" fill="#40EBB8"/><path d="M110 81.379l113.237 65.379V16L110 81.379z" fill="#54FAC8"/><path opacity=".4" fill-rule="evenodd" clip-rule="evenodd" d="M110.484 273.295c5.833 6.717 9.901 14.506 11.859 22.621 1.074 4.488-1.15 8.991-5.115 10.992l.015.028c-23.67 11.986-54.35 4.282-71.731-15.732-5.833-6.716-9.901-14.505-11.859-22.62-1.074-4.489 1.15-8.991 5.116-10.992 23.783-12.3 54.623-3.979 71.715 15.703zm114.55-81.393c.015 15.219.036 33.945 0 0zM107.647 6.074c12.82 22.966 6.671 53.326-12 71.488-6.408 6.234-13.944 10.747-21.88 13.153-4.75 1.439-9.739-.9-11.762-5.29-3.929-7.038-6.238-15.182-6.689-23.738C53.932 35.357 70.482 8.48 95.885.785c4.75-1.44 9.739.9 11.762 5.29zM94.333 30.471a36.796 36.796 0 00-1.147-7.416C78.82 32.06 71.26 51.238 75.554 67.536c12.233-7.666 19.54-22.77 18.779-37.065zM36.459 75.127c-4.16-2.31-9.504-1.334-12.54 2.512-16.463 20.859-14.606 52.236 1.677 72.922 5.332 6.775 11.963 12.119 19.28 15.595 4.16 2.309 9.504 1.334 12.54-2.512C79.355 135.85 68.465 90.33 36.46 75.127zm3.322 27.764c9.033 11.259 11.79 27.663 6.165 40.899-13.133-10.856-18.067-30.765-11.468-46.297a37.232 37.232 0 015.303 5.398zM11.817 166.49c-4.647-.157-8.899 2.989-9.957 7.676-5.863 25.974 9.435 53.716 33.1 65.461 7.833 3.886 16.267 5.876 24.532 5.828 4.647.157 8.899-2.989 9.957-7.676 7.823-34.654-21.752-71.496-57.632-71.289zm15.833 23.558c12.86 6.446 22.296 20.125 23.033 34.534-16.3-4.375-29.18-20.28-30.046-37.219a37.233 37.233 0 017.013 2.685zm36.06 80.831a36.584 36.584 0 00-7.564.738c8.263 14.928 27.088 23.736 43.704 20.312-7.043-12.721-21.739-20.971-36.14-21.05z" fill="#2ED2A1"/><path opacity=".4" fill-rule="evenodd" clip-rule="evenodd" d="M339.621 273.295c-5.832 6.716-9.901 14.506-11.859 22.62-1.074 4.489 1.151 8.991 5.116 10.992l-.015.029c23.669 11.986 54.349 4.282 71.731-15.732 5.832-6.717 9.9-14.506 11.858-22.621 1.075-4.488-1.15-8.991-5.115-10.992-23.783-12.299-54.623-3.978-71.716 15.704zm-114.55-81.393c-.014 15.219-.035 33.945 0 0zM342.458 6.074c-12.819 22.965-6.67 53.326 12.001 71.488 6.408 6.233 13.943 10.747 21.88 13.153 4.749 1.438 9.738-.9 11.762-5.29 3.928-7.038 6.238-15.182 6.688-23.739 1.385-26.33-15.166-53.206-40.568-60.902-4.75-1.439-9.74.9-11.763 5.29zm13.315 24.396c.136-2.564.524-5.05 1.147-7.415 14.366 9.004 21.924 28.182 17.631 44.481-12.232-7.667-19.539-22.77-18.778-37.066zm57.873 44.657c4.16-2.31 9.504-1.334 12.541 2.511 16.462 20.859 14.606 52.236-1.677 72.922-5.333 6.775-11.963 12.119-19.28 15.595-4.16 2.31-9.505 1.334-12.541-2.511-21.937-27.794-11.049-73.314 20.957-88.517zm-3.321 27.763c-9.033 11.259-11.79 27.663-6.166 40.899 13.134-10.855 18.068-30.764 11.469-46.296a37.206 37.206 0 00-5.303 5.397zm27.963 63.599c4.648-.156 8.899 2.989 9.957 7.677 5.864 25.974-9.435 53.715-33.1 65.46-7.833 3.887-16.267 5.877-24.531 5.829-4.648.157-8.899-2.989-9.957-7.676-7.823-34.654 21.752-71.497 57.631-71.29zm-15.833 23.558c-12.859 6.446-22.295 20.125-23.033 34.535 16.3-4.375 29.18-20.281 30.047-37.219a37.24 37.24 0 00-7.014 2.684zm-36.06 80.832a36.503 36.503 0 017.564.738c-8.263 14.928-27.087 23.736-43.704 20.311 7.043-12.721 21.739-20.971 36.14-21.049z" fill="#2ED2A1"/></svg>
